**harm	**harte	**timestamp	**phrase	**leadinstrument	**kern
*M4/4	*M4/4	*	*	*	*
*E:	*E:	*	*	*	*E:
1r;	N	0	.	r	1r;
=1	=1	=1	=1	=1	=1
*>A_intro	*>A_intro	*>A_intro	*>A_intro	*>A_intro	*>A_intro
1I	E:1	0.515	newline	guitar	1E 1g# 1b
=2	=2	=2	=2	=2	=2
1-II	F:1	2.447	.	guitar	1F 1a 1cc
=3	=3	=3	=3	=3	=3
1II	F#:1	4.38	.	guitar	1F# 1a# 1cc#
=4	=4	=4	=4	=4	=4
1-II	F:1	6.313	.	guitar	1F 1a 1cc
=5	=5	=5	=5	=5	=5
1I	E:maj	8.246	.	guitar	1E 1g# 1b
=6	=6	=6	=6	=6	=6
1I	E:maj	10.179	.	guitar	1E 1g# 1b
=7	=7	=7	=7	=7	=7
*>B_chorus	*>B_chorus	*>B_chorus	*>B_chorus	*>B_chorus	*>B_chorus
1I	E:maj	12.112	newline	voice	1E 1g# 1b
=8	=8	=8	=8	=8	=8
1Im7	E:7	14.119	.	voice	1E 1g# 1b 1dd#
=9	=9	=9	=9	=9	=9
1IV	A:maj	16.126	.	voice	1A 1cc# 1ee
=10	=10	=10	=10	=10	=10
1IV	A:maj	18.133	.	voice	1A 1cc# 1ee
=11	=11	=11	=11	=11	=11
1I	E:maj	20.14	newline	voice	1E 1g# 1b
=12	=12	=12	=12	=12	=12
1V	B:maj	22.062	.	voice	1B 1dd# 1ff#
=13	=13	=13	=13	=13	=13
1I	E:maj	23.984	.	voice	1E 1g# 1b
=14	=14	=14	=14	=14	=14
1I	E:maj	25.906	.	voice	1E 1g# 1b
=15	=15	=15	=15	=15	=15
*>C_verse	*>C_verse	*>C_verse	*>C_verse	*>C_verse	*>C_verse
1I	E:maj	27.828	newline	voice	1E 1g# 1b
=16	=16	=16	=16	=16	=16
1V	B:maj	29.748	.	voice	1B 1dd# 1ff#
=17	=17	=17	=17	=17	=17
1I	E:maj	31.668	.	voice	1E 1g# 1b
=18	=18	=18	=18	=18	=18
1I	E:maj	33.589	.	voice	1E 1g# 1b
=19	=19	=19	=19	=19	=19
1V	B:maj	35.509	newline	voice	1B 1dd# 1ff#
=20	=20	=20	=20	=20	=20
1V	B:maj	37.479	.	voice	1B 1dd# 1ff#
=21	=21	=21	=21	=21	=21
1I	E:maj	39.448	.	voice	1E 1g# 1b
=22	=22	=22	=22	=22	=22
1Im7	E:7	41.418	.	voice	1E 1g# 1b 1dd#
=23	=23	=23	=23	=23	=23
1IV	A:maj	43.388	newline	voice	1A 1cc# 1ee
=24	=24	=24	=24	=24	=24
1IV	A:maj	45.38	.	voice	1A 1cc# 1ee
=25	=25	=25	=25	=25	=25
1I	E:maj	47.373	.	voice	1E 1g# 1b
=26	=26	=26	=26	=26	=26
1I	E:maj	49.366	.	voice	1E 1g# 1b
=27	=27	=27	=27	=27	=27
1II	F#:maj	51.359	newline	voice	1F# 1a# 1cc#
=28	=28	=28	=28	=28	=28
1II	F#:maj	53.35	.	voice	1F# 1a# 1cc#
=29	=29	=29	=29	=29	=29
1V	B:maj	55.341	.	voice	1B 1dd# 1ff#
=30	=30	=30	=30	=30	=30
1V	B:maj	57.333	.	voice	1B 1dd# 1ff#
=31	=31	=31	=31	=31	=31
*>B_chorus	*>B_chorus	*>B_chorus	*>B_chorus	*>B_chorus	*>B_chorus
1I	E:maj	59.324	newline	voice	1E 1g# 1b
=32	=32	=32	=32	=32	=32
1Im7	E:7	61.319	.	voice	1E 1g# 1b 1dd#
=33	=33	=33	=33	=33	=33
1IV	A:maj	63.314	.	voice	1A 1cc# 1ee
=34	=34	=34	=34	=34	=34
1IV	A:maj	65.31	.	voice	1A 1cc# 1ee
=35	=35	=35	=35	=35	=35
1I	E:maj	67.305	newline	voice	1E 1g# 1b
=36	=36	=36	=36	=36	=36
1V	B:maj	69.413	.	voice	1B 1dd# 1ff#
=37	=37	=37	=37	=37	=37
*>A_interlude	*>A_interlude	*>A_interlude	*>A_interlude	*>A_interlude	*>A_interlude
1I	E:1	71.521	newline	guitar	1E 1g# 1b
=38	=38	=38	=38	=38	=38
1-II	F:1	73.422	.	guitar	1F 1a 1cc
=39	=39	=39	=39	=39	=39
1II	F#:1	75.323	.	guitar	1F# 1a# 1cc#
=40	=40	=40	=40	=40	=40
1-II	F:1	77.224	.	guitar	1F 1a 1cc
=41	=41	=41	=41	=41	=41
1V	B:maj	79.125	newline	guitar	1B 1dd# 1ff#
=42	=42	=42	=42	=42	=42
1V	B:maj	81.147	.	guitar	1B 1dd# 1ff#
=43	=43	=43	=43	=43	=43
*>C2_verse	*>C2_verse	*>C2_verse	*>C2_verse	*>C2_verse	*>C2_verse
1V	B:maj	83.169	newline	voice	1B 1dd# 1ff#
=44	=44	=44	=44	=44	=44
1II	F#:maj	85.128	.	voice	1F# 1a# 1cc#
=45	=45	=45	=45	=45	=45
1V	B:maj	87.087	.	voice	1B 1dd# 1ff#
=46	=46	=46	=46	=46	=46
1V	B:maj	89.046	.	voice	1B 1dd# 1ff#
=47	=47	=47	=47	=47	=47
1II	F#:maj	91.006	newline	voice	1F# 1a# 1cc#
=48	=48	=48	=48	=48	=48
1II	F#:maj	92.994	.	voice	1F# 1a# 1cc#
=49	=49	=49	=49	=49	=49
1V	B:maj	94.983	.	voice	1B 1dd# 1ff#
=50	=50	=50	=50	=50	=50
1V	B:maj	96.971	.	voice	1B 1dd# 1ff#
=51	=51	=51	=51	=51	=51
1I	E:maj	98.96	newline	voice	1E 1g# 1b
=52	=52	=52	=52	=52	=52
1I	E:maj	100.951	.	voice	1E 1g# 1b
=53	=53	=53	=53	=53	=53
1V	B:maj	102.941	.	voice	1B 1dd# 1ff#
=54	=54	=54	=54	=54	=54
1V	B:maj	104.932	.	voice	1B 1dd# 1ff#
=55	=55	=55	=55	=55	=55
1VI	C#:maj	106.923	newline	voice	1C# 1e# 1g#
=56	=56	=56	=56	=56	=56
1VI	C#:maj	108.881	.	voice	1C# 1e# 1g#
=57	=57	=57	=57	=57	=57
1II	F#:maj	110.839	.	voice	1F# 1a# 1cc#
=58	=58	=58	=58	=58	=58
1II	F#:maj	112.797	.	voice	1F# 1a# 1cc#
=59	=59	=59	=59	=59	=59
*>C2_verse	*>C2_verse	*>C2_verse	*>C2_verse	*>C2_verse	*>C2_verse
1V	B:maj	114.755	newline	voice	1B 1dd# 1ff#
=60	=60	=60	=60	=60	=60
1II	F#:maj	116.744	.	voice	1F# 1a# 1cc#
=61	=61	=61	=61	=61	=61
1V	B:maj	118.732	.	voice	1B 1dd# 1ff#
=62	=62	=62	=62	=62	=62
1V	B:maj	120.721	.	voice	1B 1dd# 1ff#
=63	=63	=63	=63	=63	=63
1II	F#:maj	122.709	newline	voice	1F# 1a# 1cc#
=64	=64	=64	=64	=64	=64
1II	F#:maj	124.724	.	voice	1F# 1a# 1cc#
=65	=65	=65	=65	=65	=65
1V	B:maj	126.739	.	voice	1B 1dd# 1ff#
=66	=66	=66	=66	=66	=66
1V	B:maj	128.754	.	voice	1B 1dd# 1ff#
=67	=67	=67	=67	=67	=67
1I	E:maj	130.769	newline	voice	1E 1g# 1b
=68	=68	=68	=68	=68	=68
1I	E:maj	132.702	.	voice	1E 1g# 1b
=69	=69	=69	=69	=69	=69
1V	B:maj	134.635	.	voice	1B 1dd# 1ff#
=70	=70	=70	=70	=70	=70
1V	B:maj	136.568	.	voice	1B 1dd# 1ff#
=71	=71	=71	=71	=71	=71
1VI	C#:maj	138.501	newline	voice	1C# 1e# 1g#
=72	=72	=72	=72	=72	=72
1VI	C#:maj	140.511	.	voice	1C# 1e# 1g#
=73	=73	=73	=73	=73	=73
1II	F#:maj	142.52	.	voice	1F# 1a# 1cc#
=74	=74	=74	=74	=74	=74
1II	F#:maj	144.53	.	voice	1F# 1a# 1cc#
=75	=75	=75	=75	=75	=75
*>B2_chorus	*>B2_chorus	*>B2_chorus	*>B2_chorus	*>B2_chorus	*>B2_chorus
1V	B:maj	146.539	newline	voice	1B 1dd# 1ff#
=76	=76	=76	=76	=76	=76
1V	B:maj	148.528	.	voice	1B 1dd# 1ff#
=77	=77	=77	=77	=77	=77
1I	E:maj	150.516	.	voice	1E 1g# 1b
=78	=78	=78	=78	=78	=78
1I	E:maj	152.504	.	voice	1E 1g# 1b
=79	=79	=79	=79	=79	=79
1V	B:maj	154.492	newline	fadeout voice	1B 1dd# 1ff#
=80	=80	=80	=80	=80	=80
1II	F#:maj	156.482	.	fadeout voice	1F# 1a# 1cc#
=81	=81	=81	=81	=81	=81
1II	F#:1	158.472	.	fadeout voice	1F# 1a# 1cc#
=82	=82	=82	=82	=82	=82
1-II	F:1	160.461	.	fadeout voice	1F 1a 1cc
=83	=83	=83	=83	=83	=83
1I	E:maj	162.451	.	fadeout voice	1E 1g# 1b
1r;	N	165.684	.	r	1r;
1r;	N	167.837	.	r	1r;
*-	*-	*-	*-	*-	*-
!!!OTL: Detroit City
!!!COC: Bobby Bare
!!!BillboardChartDate: 1963/07/20
!!!BillboardPeak: 16
!!!BillboardWeeksOnChart: 12
!!!SampleTargetRank: 24
!!!SampleActualRank: 24
!!!SampleID#: 0133
!!!RDF**harmony: **recip + pitch class of root + harmonic quality
!!!RDF**harte: Chris Harte's syntax, used by MIREX
!!!RDF**phrase: newline = linebreak in original McGill transcription
!!!RDF**timestamp: McGill audio timestamp in seconds
!!!RDF**leadinstrument: original McGill primary instrumentation annotation
!!!RDT: 2017/01/12/
!!!ENC: Nathaniel Condit-Schultz
!!!EST: Awating manual error checking and editing.
